src/icons/waiting.svg

<svg viewBox="0 0 13 13" xmlns="http://www.w3.org/2000/svg">
<path d="M12.289 0.779318C11.9062 0.779318 11.5918 1.09378 11.5918 1.4766V2.461L11.0449 1.91411C9.82804 0.683612 8.20104 0 6.47834 0C4.75564 0 3.11497 0.683612 1.89814 1.90044C0.585603 3.21298 -0.0980086 5.03139 0.0113694 6.87714C0.0387139 7.24629 0.339503 7.53341 0.694982 7.53341C0.708654 7.53341 0.722326 7.53341 0.735998 7.53341C1.11882 7.50606 1.40594 7.17793 1.37859 6.7951C1.29656 5.33217 1.84345 3.91026 2.86887 2.88484C4.85134 0.888696 8.09166 0.888696 10.0741 2.88484L10.621 3.43173H9.63663C9.25381 3.43173 8.95302 3.73252 8.95302 4.11535C8.95302 4.49817 9.26748 4.81263 9.6503 4.81263H12.3027C12.6855 4.81263 13 4.49817 13 4.11535V1.46293C12.9863 1.08011 12.6719 0.779318 12.289 0.779318Z" />
<path d="M8.76162 6.4122L7.13462 5.96102V3.56838C7.13462 3.18556 6.82016 2.87109 6.43734 2.87109C6.05451 2.87109 5.74005 3.18556 5.74005 3.56838V6.48057C5.74005 6.79503 5.94514 7.06847 6.24592 7.15051L8.37879 7.75208C8.44716 7.76576 8.50184 7.77943 8.57021 7.77943C8.87099 7.77943 9.14444 7.57435 9.24015 7.27356C9.34952 6.89073 9.13077 6.50791 8.76162 6.4122Z" />
<path d="M4.85134 11.3766C4.52321 11.2673 4.20874 11.1305 3.90795 10.9528C3.60717 10.7751 3.22434 10.8844 3.06028 11.1852C2.88254 11.486 2.99191 11.8688 3.2927 12.0329C3.66185 12.2517 4.05835 12.4294 4.46852 12.5524C4.53688 12.5798 4.60524 12.5798 4.65993 12.5798C4.9197 12.5798 5.1658 12.4157 5.24783 12.156C5.34354 11.8415 5.17947 11.486 4.85134 11.3766Z" />
<path d="M1.85714 8.78936C1.70675 8.4749 1.32393 8.36552 1.02314 8.51591C0.722347 8.66631 0.585625 9.04913 0.749692 9.34992C0.941103 9.73274 1.17353 10.1019 1.4333 10.43C1.55635 10.5804 1.73409 10.6625 1.9255 10.6625C2.06223 10.6625 2.19895 10.6214 2.30833 10.5257C2.58177 10.307 2.62279 9.92415 2.41771 9.65071C2.19895 9.39094 2.02121 9.10382 1.85714 8.78936Z" />
<path d="M10.3476 9.89858C10.2793 9.98061 10.1972 10.0626 10.1289 10.131C9.95112 10.3087 9.77338 10.4591 9.58197 10.6095C9.30852 10.8146 9.25383 11.2111 9.45892 11.4846C9.58197 11.6486 9.77338 11.7307 9.95112 11.7307C10.0878 11.7307 10.2109 11.6896 10.3203 11.6076C10.5527 11.4299 10.7715 11.2385 10.9902 11.0197C11.0859 10.924 11.1816 10.8283 11.2637 10.7326C11.4961 10.4728 11.4687 10.0763 11.209 9.85756C10.9629 9.61146 10.5664 9.6388 10.3476 9.89858Z" />
<path d="M7.81825 11.4564C7.49011 11.5522 7.13463 11.6068 6.79283 11.6205C6.45102 11.6479 6.19125 11.935 6.20492 12.2768C6.21859 12.6049 6.50571 12.8647 6.82017 12.8647C6.83385 12.8647 6.84752 12.8647 6.86119 12.8647C7.28503 12.8373 7.72254 12.769 8.13271 12.6596C8.46084 12.5639 8.66593 12.2221 8.57022 11.894C8.47451 11.5658 8.14638 11.3744 7.81825 11.4564Z" />
</svg>

<svg viewBox="0 0 13 13" xmlns="http://www.w3.org/2000/svg"><path d="M12.289.78a.7.7 0 00-.697.697v.984l-.547-.547A6.392 6.392 0 006.478 0a6.467 6.467 0 00-4.58 1.9A6.503 6.503 0 00.011 6.877c.028.37.329.656.684.656h.041a.69.69 0 00.643-.738 5.126 5.126 0 011.49-3.91 5.083 5.083 0 017.205 0l.547.547h-.984c-.383 0-.684.3-.684.683a.7.7 0 00.697.698h2.653A.7.7 0 0013 4.115V1.463a.71.71 0 00-.711-.684z"/><path d="M8.762 6.412l-1.627-.451V3.568a.7.7 0 00-.698-.697.7.7 0 00-.697.697v2.913a.69.69 0 00.506.67l2.133.601c.068.014.123.027.191.027.301 0 .574-.205.67-.505a.685.685 0 00-.478-.862zM4.851 11.377a4.858 4.858 0 01-.943-.424.61.61 0 00-.848.232.61.61 0 00.233.848c.369.219.765.396 1.176.52a.497.497 0 00.19.027c.26 0 .507-.164.589-.424a.63.63 0 00-.397-.78zM1.857 8.79a.617.617 0 00-.834-.274.617.617 0 00-.273.834c.191.383.424.752.683 1.08.123.15.301.232.492.232a.573.573 0 00.383-.136.628.628 0 00.11-.875 4.666 4.666 0 01-.56-.862zM10.348 9.899a5.968 5.968 0 01-.766.71.621.621 0 00.37 1.121.6.6 0 00.368-.122c.233-.178.451-.37.67-.588.096-.096.192-.192.274-.287a.612.612 0 00-.055-.875.584.584 0 00-.861.04zM7.818 11.456c-.328.096-.683.15-1.025.165a.634.634 0 00-.588.656c.014.328.3.588.615.588h.041a6.667 6.667 0 001.272-.205.627.627 0 00.437-.766.624.624 0 00-.752-.438z"/></svg>
